X: 36114
T: Schottische From Havero
R: barndance
M: 4/4
K: Dminor
|:FE|D2 DE FGFE|D2 A2 A3 A|d^cde f2 f2|efe^c AGFE|
D2 DE FGFE|D2 A2 A3 A|d^cde f2 f2|1 e2 ^c2 d2:|2 e2 e^c defg||
|:a2 a^g a3 =g|fgfe f3 d|e2 e^c Acec|d^cde fefg|
aba^g a2 a=g|fgfe f2 fd|efe^c Acec|1 d2 d^c d3 f:|2 d2 d2 d2||

